src/img/gosuslugi-logo.svg

<svg width="180" height="31" viewBox="0 0 180 31" fill="none" xmlns="http://www.w3.org/2000/svg">
<g clip-path="url(#clip0_2592_1727)">
<path d="M117.493 1.34804H102.822C102.699 1.34804 102.575 1.47847 102.575 1.60891C102.205 8.65239 100.973 16.2176 99.123 22.348V22.6089C99.2463 22.7393 99.2463 22.7393 99.3696 22.7393H104.425C104.548 22.7393 104.671 22.6089 104.671 22.6089C106.027 17.9132 107.26 11.6524 107.63 6.435H112.438V22.6089C112.438 22.7393 112.562 22.8697 112.685 22.8697H117.493C117.616 22.8697 117.74 22.7393 117.74 22.6089V1.73934C117.74 1.47847 117.616 1.34804 117.493 1.34804ZM179.753 1.34804H174.945C174.822 1.34804 174.699 1.47847 174.699 1.60891V17.6524C173.589 18.0437 172.603 18.0437 171.37 18.0437C168.164 18.0437 167.425 17.0002 167.425 12.5654V1.73934C167.425 1.60891 167.301 1.47847 167.178 1.47847H162.37C162.246 1.47847 162.123 1.60891 162.123 1.73934V13.348C162.123 20.6524 164.466 23.3915 170.383 23.3915C173.712 23.3915 177.534 22.4784 179.753 21.5654C179.877 21.5654 179.877 21.435 179.877 21.3045V1.73934C180 1.47847 179.877 1.34804 179.753 1.34804ZM77.9176 1.47847H72.9861C72.8628 1.47847 72.7395 1.60891 72.7395 1.60891C71.9997 4.73934 70.397 10.0872 68.3011 15.6958L63.3696 1.47847C63.3696 1.34804 63.2463 1.34804 63.123 1.34804H58.1915C58.0682 1.34804 58.0682 1.47847 57.945 1.47847C57.8217 1.60891 57.8217 1.60891 57.945 1.73934L65.3422 23.0002C64.6025 24.6958 63.8628 26.0002 63.2463 27.3045C62.7532 28.2176 62.26 29.2611 61.7669 30.1741C61.6436 30.3045 61.7669 30.3045 61.7669 30.435C61.8902 30.5654 61.8902 30.5654 62.0134 30.5654H67.3148C67.4381 30.5654 67.4381 30.435 67.5614 30.435C68.4244 28.6089 69.6573 26.0002 70.6436 23.3915C73.7258 15.6958 76.3148 8.39152 78.1641 1.73934C78.1641 1.60891 78.1641 1.60891 78.0408 1.47847H77.9176ZM95.4244 17.7828C95.4244 17.6524 95.3011 17.6524 95.3011 17.6524H95.0545C93.9449 18.0437 91.7258 18.5654 90.123 18.5654C86.7943 18.5654 85.1915 17.6524 85.1915 12.1741C85.1915 7.86978 85.6847 5.78282 90.123 5.78282C91.3559 5.78282 92.5888 5.91326 94.0682 6.435C94.1915 6.435 94.3148 6.435 94.4381 6.30456C95.0545 5.13065 95.671 3.8263 96.4107 2.13065V1.86978C96.4107 1.73934 96.1641 1.60891 96.1641 1.60891C94.1915 0.956734 91.8491 0.56543 89.7532 0.56543C82.7258 0.56543 79.6436 3.95673 79.6436 11.9132C79.6436 19.8697 82.7258 23.3915 89.7532 23.3915C91.4792 23.3915 94.9313 23.0002 96.6573 22.2176C96.7806 22.0871 96.7806 22.0871 96.7806 21.8263L95.4244 17.7828ZM141.164 1.47847H136.233C136.11 1.47847 135.986 1.60891 135.986 1.60891C135.247 4.73934 133.644 10.0872 131.548 15.6958L126.616 1.47847C126.616 1.34804 126.493 1.34804 126.37 1.34804H121.438C121.315 1.34804 121.315 1.47847 121.192 1.47847C121.068 1.60891 121.068 1.60891 121.192 1.73934L128.589 23.0002C127.849 24.6958 127.11 25.8697 126.493 27.3045C126 28.2176 125.507 29.2611 125.014 30.1741C124.89 30.3045 125.014 30.3045 125.014 30.435C125.137 30.5654 125.137 30.5654 125.26 30.5654H130.562C130.685 30.5654 130.685 30.435 130.808 30.435C131.671 28.6089 132.904 26.0002 133.89 23.3915C136.973 15.6958 139.562 8.39152 141.288 1.73934C141.288 1.60891 141.288 1.60891 141.164 1.47847ZM159.164 1.34804H144.986C144.863 1.34804 144.74 1.47847 144.74 1.60891V22.348C144.74 22.4784 144.863 22.6089 144.986 22.6089H149.794C149.918 22.6089 150.041 22.4784 150.041 22.348V6.30456H157.438C157.562 6.30456 157.685 6.17413 157.685 6.17413C158.301 4.73934 158.794 3.30456 159.411 1.73934V1.47847C159.288 1.47847 159.164 1.34804 159.164 1.34804Z" fill="#EE3F58"/>
<path d="M25.6433 18.5653C22.4379 18.5653 21.4516 17.6523 21.4516 12.0436C21.4516 6.04363 22.5611 5.52189 25.6433 5.52189C28.7255 5.52189 29.9584 6.04363 29.9584 12.0436C29.8351 17.7827 28.8488 18.5653 25.6433 18.5653ZM25.6433 0.695801C18.7392 0.695801 16.0269 3.82624 16.0269 11.9132C16.0269 20.1306 18.7392 23.261 25.6433 23.261C32.5474 23.261 35.3831 20.1306 35.3831 11.9132C35.3831 3.95667 32.5474 0.695801 25.6433 0.695801ZM54.4926 17.7827C54.4926 17.6523 54.3694 17.6523 54.3694 17.6523H54.1228C53.0132 18.0436 50.794 18.5653 49.1913 18.5653C45.8625 18.5653 44.2598 17.6523 44.2598 12.174C44.2598 7.86971 44.7529 5.78276 49.1913 5.78276C50.4242 5.78276 51.657 5.91319 53.1365 6.43493C53.2598 6.43493 53.3831 6.43493 53.5063 6.3045C54.1228 5.13058 54.7392 3.82624 55.4789 2.13058V1.86971C55.4789 1.73928 55.3557 1.73928 55.3557 1.73928C53.5063 1.0871 51.0406 0.826236 49.068 0.826236C42.0406 0.826236 38.9584 4.21754 38.9584 12.174C38.9584 20.1306 42.0406 23.6523 49.068 23.6523C50.794 23.6523 54.2461 23.261 55.9721 22.4784C56.0954 22.3479 56.0954 22.3479 56.0954 22.0871L54.4926 17.7827ZM14.4242 1.34797H0.246087C0.1228 1.34797 -0.000488281 1.47841 -0.000488281 1.73928V22.4784C-0.000488281 22.6088 0.1228 22.7392 0.246087 22.7392H5.0543C5.17759 22.7392 5.30088 22.6088 5.30088 22.4784V6.3045H12.6981C12.8214 6.3045 12.8214 6.17406 12.9447 6.17406C13.5611 4.73928 14.1776 3.17406 14.6707 1.73928V1.47841C14.6707 1.47841 14.5474 1.34797 14.4242 1.34797Z" fill="#0065B1"/>
</g>
<defs>
<clipPath id="clip0_2592_1727">
<rect width="180" height="30" fill="white" transform="translate(0 0.56543)"/>
</clipPath>
</defs>
</svg>

<svg viewBox="0 0 180 31" fill="none" xmlns="http://www.w3.org/2000/svg"><g clip-path="url(#a)"><path d="M117.493 1.348h-14.671c-.123 0-.247.13-.247.26-.37 7.044-1.602 14.61-3.452 20.74v.26c.123.131.123.131.247.131h5.055c.123 0 .246-.13.246-.13 1.356-4.696 2.589-10.957 2.959-16.174h4.808v16.174c0 .13.124.26.247.26h4.808c.123 0 .247-.13.247-.26V1.739c0-.26-.124-.391-.247-.391Zm62.26 0h-4.808c-.123 0-.246.13-.246.26v16.044c-1.11.392-2.096.392-3.329.392-3.206 0-3.945-1.044-3.945-5.479V1.74c0-.13-.124-.26-.247-.26h-4.808c-.124 0-.247.13-.247.26v11.609c0 7.304 2.343 10.043 8.26 10.043 3.329 0 7.151-.913 9.37-1.826.124 0 .124-.13.124-.26V1.739c.123-.26 0-.391-.124-.391Zm-101.835.13h-4.932c-.123 0-.246.13-.246.13-.74 3.131-2.343 8.48-4.439 14.088L63.37 1.478c0-.13-.124-.13-.247-.13h-4.931c-.124 0-.124.13-.247.13-.123.13-.123.13 0 .261L65.342 23c-.74 1.696-1.48 3-2.096 4.305-.493.913-.986 1.956-1.48 2.87-.122.13 0 .13 0 .26.124.13.124.13.247.13h5.302c.123 0 .123-.13.246-.13.863-1.826 2.096-4.435 3.083-7.043 3.082-7.696 5.67-15 7.52-21.653 0-.13 0-.13-.123-.26h-.123Zm17.506 16.305c0-.13-.123-.13-.123-.13h-.246c-1.11.39-3.33.912-4.932.912-3.329 0-4.931-.913-4.931-6.39 0-4.305.493-6.392 4.931-6.392 1.233 0 2.466.13 3.945.652.124 0 .247 0 .37-.13.617-1.174 1.233-2.479 1.973-4.174V1.87c0-.13-.247-.261-.247-.261C94.192.957 91.85.565 89.754.565c-7.028 0-10.11 3.392-10.11 11.348 0 7.957 3.082 11.479 10.11 11.479 1.725 0 5.177-.392 6.903-1.174.124-.13.124-.13.124-.392l-1.357-4.043Zm45.74-16.305h-4.931c-.123 0-.247.13-.247.13-.739 3.131-2.342 8.48-4.438 14.088l-4.932-14.218c0-.13-.123-.13-.246-.13h-4.932c-.123 0-.123.13-.246.13-.124.13-.124.13 0 .261L128.589 23c-.74 1.696-1.479 2.87-2.096 4.305-.493.913-.986 1.956-1.479 2.87-.124.13 0 .13 0 .26.123.13.123.13.246.13h5.302c.123 0 .123-.13.246-.13.863-1.826 2.096-4.435 3.082-7.043 3.083-7.696 5.672-15 7.398-21.653 0-.13 0-.13-.124-.26Zm18-.13h-14.178c-.123 0-.246.13-.246.26v20.74c0 .13.123.26.246.26h4.808c.124 0 .247-.13.247-.26V6.305h7.397c.124 0 .247-.13.247-.13.616-1.436 1.109-2.87 1.726-4.436v-.26c-.123 0-.247-.131-.247-.131Z" fill="#EE3F58"/><path d="M25.643 18.565c-3.205 0-4.191-.913-4.191-6.521 0-6 1.11-6.522 4.191-6.522 3.082 0 4.315.522 4.315 6.522-.123 5.739-1.11 6.521-4.315 6.521Zm0-17.87c-6.904 0-9.616 3.131-9.616 11.218 0 8.218 2.712 11.348 9.616 11.348s9.74-3.13 9.74-11.348c0-7.956-2.836-11.217-9.74-11.217Zm28.85 17.088c0-.13-.124-.13-.124-.13h-.246c-1.11.39-3.329.912-4.932.912-3.329 0-4.931-.913-4.931-6.391 0-4.304.493-6.391 4.931-6.391 1.233 0 2.466.13 3.945.652.124 0 .247 0 .37-.13.617-1.174 1.233-2.479 1.973-4.174V1.87c0-.13-.123-.13-.123-.13-1.85-.653-4.315-.914-6.288-.914-7.027 0-10.11 3.392-10.11 11.348 0 7.957 3.083 11.478 10.11 11.478 1.726 0 5.178-.391 6.904-1.174.123-.13.123-.13.123-.39l-1.602-4.305ZM14.424 1.348H.246c-.123 0-.246.13-.246.391v20.74c0 .13.123.26.246.26h4.808c.124 0 .247-.13.247-.26V6.304h7.397c.123 0 .123-.13.247-.13.616-1.436 1.233-3 1.726-4.436v-.26s-.124-.131-.247-.131Z" fill="#0065B1"/></g><defs><clipPath id="a"><path fill="#fff" transform="translate(0 .565)" d="M0 0h180v30H0z"/></clipPath></defs></svg>
